symbols/web/power/materialsymbolsoutlined/power_wght200gradN25_40px.svg

<svg xmlns="http://www.w3.org/2000/svg" height="40" width="40"><path d="M18.542 31.875h2.916v-3.583l5.459-5.625v-6.75q0-.375-.334-.688-.333-.312-.708-.312h-11.75q-.375 0-.708.312-.334.313-.334.688v6.75l5.459 5.625Zm-1.334 1.333v-4.333L11.75 23.25v-7.292q0-1 .708-1.687.709-.688 1.667-.688h2.542l-.709.667V6.792h1.375v6.75h5.334v-6.75h1.375v7.458l-.667-.667h2.5q.958 0 1.667.688.708.687.708 1.687v7.292l-5.458 5.625v4.333ZM20 23.375Z"/></svg>

<svg xmlns="http://www.w3.org/2000/svg" height="40" width="40"><path d="M18.542 31.875H21.458V28.292L26.917 22.667V15.917Q26.917 15.542 26.583 15.229Q26.25 14.917 25.875 14.917H14.125Q13.75 14.917 13.417 15.229Q13.083 15.542 13.083 15.917V22.667L18.542 28.292ZM17.208 33.208V28.875L11.75 23.25V15.958Q11.75 14.958 12.458 14.25Q13.167 13.542 14.167 13.542H15.958V6.792H17.333V13.542H22.667V6.792H24.042V13.542H25.833Q26.833 13.542 27.542 14.25Q28.25 14.958 28.25 15.958V23.25L22.792 28.875V33.208ZM20 23.375Q20 23.375 20 23.375Q20 23.375 20 23.375Q20 23.375 20 23.375Q20 23.375 20 23.375Z"/></svg>
